X: 1
T: Mazurca De Comptoir
M: 3/4
L: 1/8
R: mazurka
K: Gmaj
|:DEF|G2 GF GA|B2 BA Bc|BA GF EF| E2 DD EF|
G2 GF GA|B2 BA Bc|BA GF EF|1G3:|2G3z2||
|:D|ED F2 FD|ED F2 FD|ED cB AG|EF E2 DD|
ED F2 FD|ED F2 FD|ED cB AG|EF G3:|
